X:2027
T:Banish Misfortune
R:Jig
C:Trad.
O:Ireland
Z:Paul Hardy's Session Tunebook 2015 (see www.paulhardy.net). Creative Commons cc by-nc-sa licenced.
M:6/8
L:1/8
Q:3/8=100
K:DMix
de|:"D"fed "C"cAG|"D"A2 d "C"cAG|"D"FDD DED|FEF "C"GFG|
"Am"A2 d cAG|AGA "C"cde|"D"fed "Am"cAG|"D"Adc d2e:|
|:"D"f2d dcd|f2g agf|"Am"e2c cBc|e2f gfe|
"D"f2g agf|"Am"e2f gfe|"D"fed "C"cAG|"D"Ad^c d2e:|
|:"D"f2g"C"e2 f|"D"d2e"C"c2d|"D"ABA "C"GAG|"D"FGE FED|
"C"c3 cAG|AGA cde|"D"fed "C"cAG|"D"Adc d2e:|

